X:104
T:The girl who broke my heart
R:Reel
O:Ireland
S:1 Richard Darsie's web page
Z:1 Transcription, slight arr., chords:Mike Long
B:2 O'Neill's 1176
S:2 O'Neill's 1176
Z:2 Transcription:Trish O'Neil & Mike Long, chords:Mike Long
M:C|
L:1/8
K:C
dc|\
"G"BGFD "C"EC~C2|"G"DGG^F GABc|"G"dgfd "C"cAGF|"F"DFFE F2dc|\
"G"BGFD "C"EC~C2|
"G"DGG^F GABc|"G"dgfd "C"cAGF|"F"DGG^F "G"G2:|\
|:D^F|\
"G"G2Bd gdBG|"F"F2Ac fcAF|
"G"G2Bd gdBd|"C"cBcd "F"cAFA|\
"G"G2Bd gdBG|"F"F2Ac fcAF|"G"GABd "C"cAGF|"F"DGGF "G"G2:|
P:Arr. O'Neill's
K:Bb
(dc)|\
"Gm"BGFD "Cm"EC-~C2|"Gm"DG{A}G^F GABc|\
"Dm"d=efd "F"cAGF|"Cm"D(E{G}FE) F2(dc)|\
"Gm"BGFD "Cm"EC-~C2|
"Gm"D(G{A}G^F) GABc|"Dm"d=efd "F"cAGF|"Cm"D(G{A}G^F) "Gm"G2|]\
(D^F)|\
"Gm"G2(Bd) gdBG|"F"F2(Ac) fcAF|
"Gm"G2(Bd) gdBd|"Eb"~c=Bcd "F"cAFA|\
"Gm"G2(Bd) gdBG|"F"F2(Ac) fcdB|\
"Gm"GABd "F"cAGF|"Eb"D(G{A}G^F) "Gm"G2|]
